X:1
T:Till the Savior Comes
T:Till the Savior Comes
T:William Howard Doane
T:Frances Jane (Fanny) Crosby, 1878
T:Public Domain Courtesy of the Cyber Hymnal™
C:William Howard Doane
Z:Public Domain
Z:Courtesy of the Cyber Hymnal™
%%score ( 1 2 ) 3
L:1/8
Q:1/4=108
M:4/4
K:E
V:1 treble 
V:2 treble 
V:3 bass 
V:1
"^Duet, Soprano & Tenor" [EG]4 [EG]2 [EG]2 | [EA]3 [EA] [EG]2 E2 | %2
w: 1.~Bright till our|Lord’s re- turn- ing,|
w: 2.~Why should our|hearts grow wea- ry,|
w: 3.~Watch, while our|bur- den bear- ing,|
w: 4.~Count ev- ery|pain a plea- sure,|
w: 5.~Love be our|joy- ful sto- ry,|
"^Chorus" [DF]3 [DF] [DB]2 [FA]2 | [EG]6 z2 |"^Duet" [EG]4 [EG]2 [EG]2 | [Ec]3 [Ec] [EB]2 [EG]2 | %6
w: Till the Sav- ior|comes;|Oh, may our|lamps be burn- ing,|
w: Till the Sav- ior|comes?|Why should our|way be drea- ry,|
w: Till the Sav- ior|comes;|Pray, while our|la- bor shar- ing,|
w: Till the Sav- ior|comes;|Trust for our|heaven- ly trea- sure,|
w: Till the Sav- ior|comes,|Love and our|home in glo- ry,|
"^Chorus" [DF]3 [FB] [Fd]2 [Ec]2 | [DB]6 z2 ||"^Full Chorus" [Ge]3 [Ge] [Bd]2 [Ac]2 | [GB]4 [EG]4 | %10
w: Till the Sav- ior|comes.|||
w: Till the Sav- ior|comes?|||
w: Till the Sav- ior|comes.|Here in sweet com-|mun- ion,|
w: Till the Sav- ior|comes.|||
w: Till the Sav- ior|comes.|||
 [DF] [FA]2 z [FA] [Ac]2 z | [GB]4 [EG]2 z2 | [Ge]3 [Ge] [Ad]2 [Ee]2 | [Ee]2 [EAc]2 [FA]2 [CF]2 | %14
w: ||||
w: ||||
w: Watch- ing, wait- ing|ev- er,|Let us dwell in|bond of un- ion|
w: ||||
w: ||||
 [B,E]3 [B,E] [EG]2 [DF]2 | E6 z2 |] x8 |] %17
w: |||
w: |||
w: Till the Sav- ior|comes.||
w: |||
w: |||
V:2
 x8 | x6 E2 | x8 | x8 | x8 | x8 | x8 | x8 || x8 | x8 | x8 | x8 | x8 | x8 | x8 | E6 x2 |] x8 |] %17
V:3
 [E,B,]4 [E,B,]2 [E,B,]2 | [E,C]3 [E,C] [E,B,]2 [E,G,]2 | [B,,B,]3 [B,,B,] [B,,F,]2 [B,,B,]2 | %3
 [E,B,]6 z2 | [E,B,]4 [E,B,]2 [E,B,]2 | [E,A,]3 [E,A,] [E,G,]2 [E,B,]2 | [F,B,]3 [F,D] [F,B,]2 x2 | %7
 [F,^A,]2 x6 || [B,,B,]6 z2 | [E,B,]3 [E,B,] [A,,E]2 [C,E]2 | [E,E]4 [E,B,]4 | %11
 [B,,B,] [B,,B,]2 z [B,,B,] [B,,D]2 z | [E,E]4 [E,B,]2 z2 | [E,B,]3 [E,B,] [F,B,]2 [G,B,]2 | %14
 [A,C]2 [A,E]2 [A,,C]2 [A,,A,]2 | [B,,G,]3 [B,,G,] [B,,B,]2 [B,,A,]2 |] [E,G,]6 z2 |] %17

